icons/basket.svg

<?xml version="1.0" encoding="UTF-8" standalone="no"?>
<svg
   xmlns:dc="http://purl.org/dc/elements/1.1/"
   xmlns:cc="http://creativecommons.org/ns#"
   xmlns:rdf="http://www.w3.org/1999/02/22-rdf-syntax-ns#"
   xmlns:svg="http://www.w3.org/2000/svg"
   xmlns="http://www.w3.org/2000/svg"
   id="svg4"
   viewBox="0 0 50 50"
   version="1.1"
   width="50"
   height="50">
  <metadata
     id="metadata10">
    <rdf:RDF>
      <cc:Work
         rdf:about="">
        <dc:format>image/svg+xml</dc:format>
        <dc:type
           rdf:resource="http://purl.org/dc/dcmitype/StillImage" />
        <dc:title></dc:title>
      </cc:Work>
    </rdf:RDF>
  </metadata>
  <defs
     id="defs8" />
  <path
     id="path4105"
     d="m 31.78125,6.9589844 c -0.421739,-0.027283 -0.906,0.072266 -1.447266,0.3847656 -2.165064,1.25 -0.914062,3.416016 -0.914062,3.416016 L 34.753906,20 H 15.246094 l 5.333984,-9.240234 c 0,0 1.251002,-2.166016 -0.914062,-3.416016 C 19.12475,7.03125 18.6404,6.933744 18.21875,6.9609375 16.953801,7.0425179 16.25,8.2597656 16.25,8.2597656 L 9.4726562,20 H 3.75 C 2.4999999,20 2.5,21.25 2.5,21.25 v 2.5 C 2.5,25 3.75,25 3.75,25 H 5 l 3.75,15 c 1.25,2.5 3.75,2.5 3.75,2.5 h 25 c 0,0 2.5,0 3.75,-2.5 L 45,25 h 1.25 c 1.25,0 1.25,-1.25 1.25,-1.25 v -2.5 C 47.5,20 46.25,20 46.25,20 H 40.527344 L 33.75,8.2597656 c 0,0 -0.703533,-1.2189331 -1.96875,-1.3007812 z M 15,26.25 c 2.5,0 2.5,2.5 2.5,2.5 V 35 c 0,0 0,2.5 -2.5,2.5 -2.5,0 -2.5,-2.5 -2.5,-2.5 v -6.25 c 0,-2.5 2.5,-2.5 2.5,-2.5 z m 10,0 c 2.5,0 2.5,2.5 2.5,2.5 V 35 c 0,0 0,2.5 -2.5,2.5 -2.5,0 -2.5,-2.5 -2.5,-2.5 v -6.25 c 0,-2.5 2.5,-2.5 2.5,-2.5 z m 10,0 c 2.5,0 2.5,2.5 2.5,2.5 V 35 c 0,0 0,2.5 -2.5,2.5 -2.5,0 -2.5,-2.5 -2.5,-2.5 v -6.25 c 0,-2.5 2.5,-2.5 2.5,-2.5 z" />
</svg>

<?xml version="1.0" encoding="UTF-8"?>
<svg width="50" height="50" version="1.1" viewBox="0 0 50 50" xmlns="http://www.w3.org/2000/svg">
<path d="m31.781 6.959c-0.42174-0.027283-0.906 0.072266-1.4473 0.38477-2.1651 1.25-0.91406 3.416-0.91406 3.416l5.334 9.2402h-19.508l5.334-9.2402s1.251-2.166-0.91406-3.416c-0.54127-0.3125-1.0256-0.41001-1.4473-0.38281-1.2649 0.08158-1.9688 1.2988-1.9688 1.2988l-6.7773 11.74h-5.7227c-1.25 0-1.25 1.25-1.25 1.25v2.5c0 1.25 1.25 1.25 1.25 1.25h1.25l3.75 15c1.25 2.5 3.75 2.5 3.75 2.5h25s2.5 0 3.75-2.5l3.75-15h1.25c1.25 0 1.25-1.25 1.25-1.25v-2.5c0-1.25-1.25-1.25-1.25-1.25h-5.7227l-6.7773-11.74s-0.70353-1.2189-1.9688-1.3008zm-16.781 19.291c2.5 0 2.5 2.5 2.5 2.5v6.25s0 2.5-2.5 2.5-2.5-2.5-2.5-2.5v-6.25c0-2.5 2.5-2.5 2.5-2.5zm10 0c2.5 0 2.5 2.5 2.5 2.5v6.25s0 2.5-2.5 2.5-2.5-2.5-2.5-2.5v-6.25c0-2.5 2.5-2.5 2.5-2.5zm10 0c2.5 0 2.5 2.5 2.5 2.5v6.25s0 2.5-2.5 2.5-2.5-2.5-2.5-2.5v-6.25c0-2.5 2.5-2.5 2.5-2.5z"/>
</svg>
